X: 1
T: The Star Of The County Down
R: barndance
M: 4/4
L: 1/8
Z: Contributed 2016-12-30 02:09:05 by barftober rex b@arf.com
K: Emin
B,D|E2E2 E2DE|G2G2 A2GA|B2AG E2DB,|D6 B,D|
E2E2 E2DE|G2G2 A2GA|B2AG E2E2|E6||
Bc|d2B2 B2AG|A2A2 A2GA|
B2AG E2DB,|D6 B,D|!E2E2 E2DE|G2G2 A2GA|B2AG E2E2|E6||
Bc|d2B2 B2AG|A2A2 A2GA|!B2AG E2DB,|D6 B,D|
E2E2 E2DE|G2G2 A2GA|B2AG E2E2|E6||
